build/images/img/computer.svg

<svg xmlns="http://www.w3.org/2000/svg" width="120" height="101"><path fill-rule="evenodd" fill="#FFF" d="M109.953 75.231H75.969l3.412 10.239c3.228.838 5.62 3.774 5.62 7.261v2.5h7.5a2.501 2.501 0 010 5.001H27.5a2.5 2.5 0 110-5.001H35v-2.5c0-3.487 2.39-6.423 5.619-7.261l3.412-10.239H10.047C4.507 75.231 0 70.724 0 65.185V10.278C0 4.739 4.507.233 10.047.233h99.906C115.493.233 120 4.739 120 10.278v54.907c0 5.539-4.507 10.046-10.047 10.046zm-67.453 15a2.502 2.502 0 00-2.5 2.5v2.5h40.001v-2.5c0-1.379-1.122-2.5-2.501-2.5h-35zm31.531-5l-3.333-10H49.302l-3.333 10h28.062zM115 15.232H20.431a2.5 2.5 0 010-5.001h94.566a5.051 5.051 0 00-5.044-4.999H10.047A5.052 5.052 0 005 10.278v47.454h94.969a2.499 2.499 0 110 5H5v2.453a5.053 5.053 0 005.047 5.047h99.906A5.053 5.053 0 00115 65.185V15.232zm-6.755 47.5h-1.057a2.5 2.5 0 110-5h1.057a2.499 2.499 0 110 5zM74.588 26.034l-3.326-.016-.479 3.785-1.6 12.624a2.489 2.489 0 01-2.637 2.171v.006l-19.063-1.269a2.494 2.494 0 01-2.292-2.06h-.003l-2.246-12.597a2.498 2.498 0 012.461-2.929v-.001h12.91a2.5 2.5 0 110 4.999h-9.927l1.38 7.739 14.771.983 1.305-10.291.757-5.972a2.488 2.488 0 012.48-2.178l5.529.027a2.49 2.49 0 01-.02 4.979zm-23.17 20.902a2.506 2.506 0 012.5 2.501 2.505 2.505 0 01-2.5 2.499 2.505 2.505 0 01-2.5-2.499 2.506 2.506 0 012.5-2.501zm12.744 0c1.377 0 2.5 1.124 2.5 2.501a2.505 2.505 0 01-2.5 2.499 2.504 2.504 0 01-2.499-2.499 2.505 2.505 0 012.499-2.501zM12.765 15.233h-1.123a2.501 2.501 0 010-5.001h1.123a2.5 2.5 0 110 5.001z"/></svg>

<svg 
 xmlns="http://www.w3.org/2000/svg"
 xmlns:xlink="http://www.w3.org/1999/xlink"
 width="120px" height="101px">
<path fill-rule="evenodd"  fill="rgb(255, 255, 255)"
 d="M109.953,75.231 L75.969,75.231 L79.381,85.470 C82.609,86.308 85.001,89.244 85.001,92.731 L85.001,95.231 L92.501,95.231 C93.881,95.231 95.001,96.351 95.001,97.732 C95.001,99.113 93.881,100.232 92.501,100.232 L81.090,100.232 L38.911,100.232 L38.911,100.232 L27.500,100.232 C26.119,100.232 25.000,99.113 25.000,97.732 C25.000,96.351 26.119,95.231 27.500,95.231 L35.000,95.231 L35.000,92.731 C35.000,89.244 37.390,86.308 40.619,85.470 L44.031,75.231 L10.047,75.231 C4.507,75.231 -0.000,70.724 -0.000,65.185 L-0.000,10.278 C-0.000,4.739 4.507,0.233 10.047,0.233 L109.953,0.233 C115.493,0.233 120.000,4.739 120.000,10.278 L120.000,65.185 C120.000,70.724 115.493,75.231 109.953,75.231 ZM42.500,90.231 C41.121,90.231 40.000,91.352 40.000,92.731 L40.000,95.231 L80.001,95.231 L80.001,92.731 C80.001,91.352 78.879,90.231 77.500,90.231 L42.500,90.231 ZM74.031,85.231 L70.698,75.231 L49.302,75.231 L45.969,85.231 L74.031,85.231 ZM115.000,15.232 L20.431,15.232 C19.051,15.232 17.931,14.113 17.931,12.732 C17.931,11.351 19.051,10.231 20.431,10.231 L114.997,10.231 C114.971,7.471 112.720,5.232 109.953,5.232 L10.047,5.232 C7.264,5.232 5.000,7.496 5.000,10.278 L5.000,57.732 L99.969,57.732 C101.350,57.732 102.469,58.850 102.469,60.232 C102.469,61.612 101.350,62.732 99.969,62.732 L5.000,62.732 L5.000,65.185 C5.000,67.967 7.264,70.232 10.047,70.232 L47.500,70.232 L72.500,70.232 L109.953,70.232 C112.736,70.232 115.000,67.967 115.000,65.185 L115.000,15.232 ZM108.245,62.732 L107.188,62.732 C105.807,62.732 104.688,61.613 104.688,60.232 C104.688,58.850 105.807,57.732 107.188,57.732 L108.245,57.732 C109.626,57.732 110.745,58.850 110.745,60.232 C110.745,61.612 109.626,62.732 108.245,62.732 ZM74.588,26.034 L71.262,26.018 L70.783,29.803 L69.183,42.427 C69.016,43.743 67.852,44.688 66.546,44.598 L66.546,44.604 L47.483,43.335 C46.311,43.257 45.383,42.383 45.191,41.275 L45.188,41.275 L42.942,28.678 C42.705,27.318 43.614,26.024 44.973,25.787 C45.118,25.762 45.261,25.749 45.403,25.749 L45.403,25.748 L58.313,25.748 C59.694,25.748 60.814,26.867 60.814,28.248 C60.814,29.628 59.694,30.747 58.313,30.747 L48.386,30.747 L49.766,38.486 L64.537,39.469 L65.842,29.178 L66.599,23.206 C66.753,21.973 67.806,21.022 69.079,21.028 L74.608,21.055 C75.983,21.059 77.093,22.178 77.087,23.554 C77.082,24.928 75.963,26.039 74.588,26.034 ZM51.418,46.936 C52.795,46.936 53.917,48.060 53.918,49.437 C53.918,50.813 52.795,51.936 51.418,51.936 C50.041,51.936 48.918,50.813 48.918,49.437 C48.918,48.060 50.041,46.936 51.418,46.936 ZM64.162,46.936 C65.539,46.936 66.662,48.060 66.662,49.437 C66.662,50.813 65.539,51.936 64.162,51.936 C62.786,51.936 61.663,50.813 61.663,49.437 C61.663,48.060 62.786,46.936 64.162,46.936 ZM12.765,15.233 L11.642,15.233 C10.262,15.233 9.142,14.113 9.142,12.732 C9.142,11.351 10.262,10.232 11.642,10.232 L12.765,10.232 C14.146,10.232 15.265,11.351 15.265,12.732 C15.265,14.113 14.146,15.233 12.765,15.233 Z"/>
</svg>
